packages/icons/svg/Fill/navigation.svg

<svg width="24" height="24" viewBox="0 0 24 24" fill="none" xmlns="http://www.w3.org/2000/svg">
<g id="Icon/Fill/navigation">
<path id="Mask" fill-rule="evenodd" clip-rule="evenodd" d="M20.0002 21.0001C19.8082 21.0001 19.6162 20.9451 19.4482 20.8341L12.5522 16.2671C12.2172 16.0451 11.7832 16.0451 11.4482 16.2671L4.55223 20.8341C4.17423 21.0831 3.67623 21.0491 3.33723 20.7491C2.99823 20.4481 2.90323 19.9581 3.10523 19.5531L11.1052 3.5531C11.4742 2.8151 12.5262 2.8151 12.8952 3.5531L20.8952 19.5531C21.0972 19.9581 21.0022 20.4481 20.6632 20.7491C20.4752 20.9151 20.2382 21.0001 20.0002 21.0001Z" fill="#000000"/>
</g>
</svg>

<svg fill="none" height="24" viewBox="0 0 24 24" width="24" xmlns="http://www.w3.org/2000/svg"><path clip-rule="evenodd" d="m20.0002 21c-.192 0-.384-.055-.552-.166l-6.896-4.567c-.335-.222-.769-.222-1.104 0l-6.896 4.567c-.378.249-.876.215-1.215-.085-.339-.301-.434-.791-.232-1.196l8-15.99999c.369-.738 1.421-.738 1.79 0l8 15.99999c.202.405.107.895-.232 1.196-.188.166-.425.251-.663.251" fill="#6b7280" fill-rule="evenodd"/></svg>
